!!!COM: Palestrina, Giovanni Perluigi da
!!!OPR: Veni Sancte Spiritus
!!!OTL: Benedictus
**kern	**kern	**kern	**kern
*Itenor	*Itenor	*Icalto	*Icant
!Tenor 2	!Tenor 1	!Altus	!Cantus
*clefGv2	*clefGv2	*clefG2	*clefG2
*k[b-]	*k[b-]	*k[b-]	*k[b-]
*G:dor	*G:dor	*G:dor	*G:dor
*M4/2	*M4/2	*M4/2	*M4/2
=1	=1	=1	=1
0r	0r	0r	0b-
=2	=2	=2	=2
0r	0r	0f	1cc
.	.	.	1dd
=3	=3	=3	=3
0r	0r	1g	2ee-
.	.	.	2dd
.	.	1a	1cc
=4	=4	=4	=4
0r	0B-	2.b-	2dd
.	.	.	2.ff
.	.	8a	.
.	.	8g	.
.	.	2f	.
.	.	.	4ee
.	.	2g	2dd
=5	=5	=5	=5
0r	1c	4a	2cc
.	.	4g	.
.	.	1g	2b-
.	1d	.	1a
.	.	2f	.
=6	=6	=6	=6
0r	2e-	1b-	2g
.	2d	.	2f
.	1c	2a	2.cc
.	.	[2g	.
.	.	.	4b-
=7	=7	=7	=7
1r	1d	2g]	1a
.	.	2f#	.
[1B-	4G	1g	2g
.	4A	.	.
.	4B-	.	2dd
.	4c	.	.
=8	=8	=8	=8
1B-]	4d	1f	1.ff
.	4e	.	.
.	4f	.	.
.	4g	.	.
1c	2a	2r	.
.	[2g	2cc	2ee-
=9	=9	=9	=9
1d	2g]	2b-	2.dd
.	2f#	2a	.
.	.	.	4cc
2e-	2g	2g	2b-
2d	[2a	2f	2dd
=10	=10	=10	=10
1c	4a]	2.cc	1ee-
.	4g	.	.
.	1g	.	.
.	.	4b-	.
1d	.	1a	[1dd
.	2f#	.	.
=11	=11	=11	=11
2.G	2.g	1b-	1dd]
4A	4f	.	.
4B-	4d	[1f	1r
4c	4e-	.	.
[2d	2f	.	.
=12	=12	=12	=12
2d]	1B-	1f]	0b-
2B-	.	.	.
2.e-	1r	1g	.
4d	.	.	.
=13	=13	=13	=13
4c	0r	1a	1cc
4B-	.	.	.
2A	.	.	.
2G	.	2b-	1dd
2d	.	2f	.
=14	=14	=14	=14
2c	1r	4g	2ee-
.	.	4a	.
2B-	.	1b-	2dd
1f	[1F	.	2.cc
.	.	2a	.
.	.	.	4b-
=15	=15	=15	=15
1f	1F]	2r	4a
.	.	.	4g
.	.	1cc	2a
2e	1G	.	2g
[2d	.	2b-	2gg
=16	=16	=16	=16
2d]	1A	1a	2ff
2c	.	.	2ee
1f	2B-	2d	2dd
.	2A	2a	2ff
=17	=17	=17	=17
2.g	1G	1b-	4ee
.	.	.	4dd
.	.	.	1dd
4f	.	.	.
1e	1A	2.a	.
.	.	.	2cc#
.	.	4g	.
=18	=18	=18	=18
1d	2r	2f	0dd
.	2G	2g	.
2r	2.B-	1d	.
2G	.	.	.
.	4c	.	.
=19	=19	=19	=19
2.B-	2d	0r	0r
.	4G	.	.
4c	4A	.	.
2d	4B-	.	.
.	4c	.	.
4G	[2d	.	.
4A	.	.	.
=20	=20	=20	=20
4B-	4d]	0r	0r
4c	4e	.	.
4d	4f	.	.
4B-	4d	.	.
4c	4e	.	.
4B-	4f	.	.
4B-	[2g	.	.
8A	.	.	.
8G	.	.	.
=21	=21	=21	=21
2A	2g]	1r	2r
2A	2f#	.	2a
[1G	1g	2r	2.b-
.	.	2g	.
.	.	.	4cc
=22	=22	=22	=22
1G]	2r	2.b-	2dd
.	2.G	.	4g
.	.	4a	4a
1r	.	2g	4b-
.	4A	.	4cc
.	4B-	4d	[2dd
.	4c	4e	.
=23	=23	=23	=23
0r	1d	4f	4dd]
.	.	4g	4ee
.	.	4a	4ff
.	.	4f	4dd
.	2c	4g	2ee
.	.	4f	.
.	2B-	4f	[2dd
.	.	8e	.
.	.	8d	.
=24	=24	=24	=24
2r	1A	2e	2dd]
2A	.	2e	2cc#
2.B-	2r	1d	2.dd
.	2d	.	.
4c	.	.	8cc
.	.	.	8b-
=25	=25	=25	=25
0d	2.f	2r	0a
.	.	2d	.
.	4g	.	.
.	2a	2.f	.
.	4d	.	.
.	4e	4g	.
=26	=26	=26	=26
2r	4f	1a	0r
.	4g	.	.
2d	2.a	.	.
2.f	.	2r	.
.	4g	.	.
.	4f	4d	.
4g	4e	4e	.
=27	=27	=27	=27
2a	1.d	4f	0r
.	.	4g	.
4d	.	2.a	.
4e	.	.	.
4f	.	.	.
4g	.	4b-	.
[2a	4c	[2cc	.
.	4B-	.	.
=28	=28	=28	=28
4a]	2A	4cc]	1r
4g	.	4b-	.
4e	2c	4g	.
4f	.	4a	.
2.g	[1G	1b-	2r
.	.	.	2g
4f	.	.	.
=29	=29	=29	=29
1e-	2G]	1g	2.b-
.	1g	.	.
.	.	.	4cc
2.d	.	2a	1dd
.	2f#	2a	.
4d	.	.	.
=30	=30	=30	=30
0G	1g	2.b-	2r
.	.	.	4g
.	.	4a	4a
.	2r	2g	4b-
.	.	.	4cc
.	2G	[2b-	[2dd
=31	=31	=31	=31
2r	2.B-	2b-]	4dd]
.	.	.	4ee
2d	.	2b-	2.ff
.	4c	.	.
2.f	1d	4a	.
.	.	4g	4ee
.	.	4f	[2dd
4g	.	4e	.
=32	=32	=32	=32
2a	2r	1d	4dd]
.	.	.	4cc
1g	4G	.	1b-
.	4A	.	.
.	4B-	2r	.
.	4c	.	.
4f	[2d	2d	4a
4e	.	.	4g
=33	=33	=33	=33
4d	4d]	2.f	2a
4e	4c	.	.
4f	2B-	.	1dd
4d	.	4g	.
1e	1A	1a	.
.	.	.	2cc#
=34	=34	=34	=34
1.g	1.G	1.b-	[0dd
2f#	2d	2a	.
=35	=35	=35	=35
[0f#	[0d	[0a	1dd_
.	.	.	1dd_
=36	=36	=36	=36
0f#]	0d]	0a]	0dd]
==	==	==	==
*-	*-	*-	*-
!!!CDT: 1525/^1526/-1594/2/2
!!!OCY: Italia
!!!AGN: Mass (Parody)
!!!AST: renaissance, vocal
!!!ASW: Motet (unidentified (Pal?))
!!!PWK: Masses, Book 4
!!!RNB: Cadence finals: D
!!!YOR: Le Opere Complete, v. 10, p. 115
!!!YOO: Rome, Italy: Fratelli Scalera
!!!END: 1992//
!!!EED: John Miller
!!!YEC: Copyright 2000, John Miller
!!!YEN: United States of America
!!!YEM: Rights to all derivative electronic formats reserved.
!!!YEM: Refer to licensing agreement for further details.
!!!YEM: This file must be accompanied by the licensing agreement.
!!!YEM: A copy of the licensing agreement may be found at http://www.music-cog.ohio-state.edu/HumdrumDatabases/Palestrina/license.txt
!!!EMD: converted to Humdrum by Bret Aarden
